src/basic/600/u29C0-left.svg

<svg width="21" height="24" viewBox="0 0 21 24" fill="none" xmlns="http://www.w3.org/2000/svg">
<path fill-rule="evenodd" clip-rule="evenodd" d="M19.625,12c0,-4.90153 -3.9735,-8.875 -8.875,-8.875c-4.90153,0 -8.875,3.97347 -8.875,8.875c0,4.9015 3.97347,8.875 8.875,8.875c4.9015,0 8.875,-3.9735 8.875,-8.875zM10.75,2.125c5.4538,0 9.875,4.42119 9.875,9.875c0,5.4538 -4.4212,9.875 -9.875,9.875c-5.45381,0 -9.875,-4.4212 -9.875,-9.875c0,-5.45381 4.42119,-9.875 9.875,-9.875zM10.7454,9.4246l0.3254,-0.37962l0.7592,0.65079l-0.3254,0.37963l-1.97106,2.2996l1.97106,2.2996l0.3254,0.3796l-0.7592,0.6508l-0.3254,-0.3796l-2.25003,-2.625l-0.27891,-0.3254l0.27891,-0.3254z" fill="black"/>
</svg>

<svg width="21" height="24" viewBox="0 0 21 24" fill="none" xmlns="http://www.w3.org/2000/svg">
<path fill-rule="evenodd" clip-rule="evenodd" d="M19.625 12C19.625 7.09847 15.6515 3.125 10.75 3.125C5.84847 3.125 1.875 7.09847 1.875 12C1.875 16.9015 5.84847 20.875 10.75 20.875C15.6515 20.875 19.625 16.9015 19.625 12ZM10.75 2.125C16.2038 2.125 20.625 6.54619 20.625 12C20.625 17.4538 16.2038 21.875 10.75 21.875C5.29619 21.875 0.875 17.4538 0.875 12C0.875 6.54619 5.29619 2.125 10.75 2.125ZM10.7454 9.4246L11.0708 9.04498L11.83 9.69577L11.5046 10.0754L9.53354 12.375L11.5046 14.6746L11.83 15.0542L11.0708 15.705L10.7454 15.3254L8.49537 12.7004L8.21646 12.375L8.49537 12.0496L10.7454 9.4246Z" fill="black"/>
</svg>
